!!! OTL: Literature69
!!! Chapter: 5
!!! Section: II
!!! Page: 360
!!! Mode: 
!!! Encoder: ESM
**kern
*staff1
*I"Piano
=1-
*clefC3
*k[]
*C:
*M4/4
2r
4r
4G/
=2
2c\
4B/
4c\
=3
2A/
4G/
4c\
=4
4d\
8e\L
8d\J
4e\
4c\
=5
2d\
4d\
4G/
=6
2c\
4B/
4c\
=7
2A/
4G/
4c\
=8
4d\
8e\L
8d\J
4e\
4c\
=9
2d\
4c\
4G/
=10
4d\
8e\L
8f\J
4e\
[4d\
=11
4d\]
8e\L
8f\J
4e\
[4d\
=12
!!linebreak:original
4d\]
8e\L
8f\J
4e\
4B/
=13
2c\
2a\
=14
4g\
8d\L
8e\J
4f\
8g\L
8d\J
=15
4e\
8d/L
8A/J
4B/
4G/
=16
2A/
4f\
[4e\
=17
4e\]
8d\L
8c\J
2B/
=18
4c\
4r
4r
4r
==
*-
